X: 9
T: This Is My Love, Do You Like Her?
R: jig
M: 6/8
L: 1/8
K: Bdor
|: B,2 B, B,^A,B, | D3 DEF | E2 E EFE | A3 F2 B |
AFD DEF | EDB, A,B,C | D2 B, CB,A, |[1 B,2 C D2 C |[2 B,3 B,C/D/F ||
|: B2 B BAF | A3 AGA | B3 BAF | A3 F2 B |
AFD DD/E/F | EDB, A,2 C | DCB, CB,A, |[1 B,3 B,DF :|[2 B,2 C D2 C |]


Tune 6	Setting 23497

